X: 1360
T: the Man with the Money   #2
R: reel
%S: s:2 b:14(7+7)
B: O'Neill's 1850 #1360
O: J.O'Neill
Z: Trish O'Neil
N: Compacted via repeats and multiple endings [JC]
M: C|
L: 1/8
K: Em
F | E2BE GEGe | E2BG FDDF |1 E2BE GABG | FdAG FDD :|2 EFGE FGAF | GdAG FD D |] F | EeeB GABG |
FDdD FAFD | EedB cABG | FDFA dAFD || EeeB GBAF | EedA FDDF | Eege f^deB | dcBA FD D |]
